usr/share/icons/biglinux-icons-material-dark/22/actions/preview-add-zone.svg

<svg xmlns="http://www.w3.org/2000/svg" viewBox="0 0 22 22">
  <defs id="defs3051">
    <style type="text/css" id="current-color-scheme">
      .ColorScheme-Text {
        color:#dedede;
      }
      </style>
  </defs>
 <path 
    style="fill:currentColor;fill-opacity:1;stroke:none" 
    d="M7 11l-3 3 3 3 0-6zM15 11l0 6 3-3-3-3zM6.0234375 4.9941406L6.0234375 8.9941406 5.0234375 8.9941406 5.0234375 6.9941406 4.0234375 6.9941406 4.0234375 8.9941406 3.0234375 8.9941406 3.0234375 9.9941406 19.023438 9.9941406 19.023438 8.9941406 19 8.9941406 19 7 18 7 18 8.9941406 17.023438 8.9941406 17.023438 4.9941406 16.023438 4.9941406 16.023438 8.9941406 15.023438 8.9941406 15.023438 6.9941406 14.023438 6.9941406 14.023438 8.9941406 13.023438 8.9941406 13.023438 6.9941406 12.023438 6.9941406 12.023438 8.9941406 11.023438 8.9941406 11.023438 6.9941406 10.023438 6.9941406 10.023438 8.9941406 9.0234375 8.9941406 9.0234375 6.9941406 8.0234375 6.9941406 8.0234375 8.9941406 7.0234375 8.9941406 7.0234375 4.9941406 6.0234375 4.9941406zM10.5 11.5l0 2-2 0 0 1 2 0 0 2 1 0 0-2 2 0 0-1-2 0 0-2-1 0zM3 11H4V17H3zM18 11H19V17H18z"
    class="ColorScheme-Text"
    />  
</svg>

<svg xmlns="http://www.w3.org/2000/svg" viewBox="0 0 22 22">
<defs id="defs3051">
<style id="current-color-scheme" type="text/css">
.ColorScheme-Text{color:#dedede}
</style>
</defs>
<path d="m7 11-3 3 3 3zm8 0v6l3-3zM6.023 4.994v4h-1v-2h-1v2h-1v1h16v-1H19V7h-1v1.994h-.977v-4h-1v4h-1v-2h-1v2h-1v-2h-1v2h-1v-2h-1v2h-1v-2h-1v2h-1v-4zM10.5 11.5v2h-2v1h2v2h1v-2h2v-1h-2v-2zM3 11h1v6H3zm15 0h1v6h-1z" class="ColorScheme-Text" style="fill:currentColor;fill-opacity:1;stroke:none"/>
</svg>
